default/images/icon/wordpress.svg

<svg xmlns="http://www.w3.org/2000/svg" viewBox="0 0 20 20"><rect x="0" fill="none" width="20" height="20"/><g><path d="M20 10c0-5.52-4.48-10-10-10S0 4.48 0 10s4.48 10 10 10 10-4.48 10-10zM10 1.01c4.97 0 8.99 4.02 8.99 8.99s-4.02 8.99-8.99 8.99S1.01 14.97 1.01 10 5.03 1.01 10 1.01zM8.01 14.82L4.96 6.61c.49-.03 1.05-.08 1.05-.08.43-.05.38-1.01-.06-.99 0 0-1.29.1-2.13.1-.15 0-.33 0-.52-.01 1.44-2.17 3.9-3.6 6.7-3.6 2.09 0 3.99.79 5.41 2.09-.6-.08-1.45.35-1.45 1.42 0 .66.38 1.22.79 1.88.31.54.5 1.22.5 2.21 0 1.34-1.27 4.48-1.27 4.48l-2.71-7.5c.48-.03.75-.16.75-.16.43-.05.38-1.1-.05-1.08 0 0-1.3.11-2.14.11-.78 0-2.11-.11-2.11-.11-.43-.02-.48 1.06-.05 1.08l.84.08 1.12 3.04zm6.02 2.15L16.64 10s.67-1.69.39-3.81c.63 1.14.94 2.42.94 3.81 0 2.96-1.56 5.58-3.94 6.97zM2.68 6.77L6.5 17.25c-2.67-1.3-4.47-4.08-4.47-7.25 0-1.16.2-2.23.65-3.23zm7.45 4.53l2.29 6.25c-.75.27-1.57.42-2.42.42-.72 0-1.41-.11-2.06-.3z"/></g></svg>

<?xml version="1.0" encoding="utf-8"?>
<!-- Generator: Adobe Illustrator 24.3.0, SVG Export Plug-In . SVG Version: 6.00 Build 0)  -->
<svg version="1.1" id="レイヤー_1" xmlns="http://www.w3.org/2000/svg" xmlns:xlink="http://www.w3.org/1999/xlink" x="0px"
	 y="0px" viewBox="0 0 20 20" style="enable-background:new 0 0 20 20;" xml:space="preserve">
<style type="text/css">
	.st0{fill:none;}
	.st1{fill:#FFFFFF;}
</style>
<rect class="st0" width="20" height="20"/>
<g>
	<path class="st1" d="M20,10c0-5.5-4.5-10-10-10S0,4.5,0,10s4.5,10,10,10S20,15.5,20,10z M10,1c5,0,9,4,9,9s-4,9-9,9s-9-4-9-9
		S5,1,10,1z M8,14.8L5,6.6C5.4,6.6,6,6.5,6,6.5c0.4-0.1,0.4-1-0.1-1c0,0-1.3,0.1-2.1,0.1c-0.2,0-0.3,0-0.5,0C4.7,3.5,7.2,2,10,2
		c2.1,0,4,0.8,5.4,2.1C14.8,4,14,4.5,14,5.5c0,0.7,0.4,1.2,0.8,1.9c0.3,0.5,0.5,1.2,0.5,2.2c0,1.3-1.3,4.5-1.3,4.5l-2.7-7.5
		c0.5,0,0.8-0.2,0.8-0.2c0.4-0.1,0.4-1.1-0.1-1.1c0,0-1.3,0.1-2.1,0.1C9,5.5,7.7,5.4,7.7,5.4c-0.4,0-0.5,1.1-0.1,1.1l0.8,0.1l1.1,3
		L8,14.8z M14,17l2.6-7c0,0,0.7-1.7,0.4-3.8C17.7,7.3,18,8.6,18,10C18,13,16.4,15.6,14,17z M2.7,6.8l3.8,10.5C3.8,15.9,2,13.2,2,10
		C2,8.8,2.2,7.8,2.7,6.8z M10.1,11.3l2.3,6.2C11.7,17.8,10.9,18,10,18c-0.7,0-1.4-0.1-2.1-0.3L10.1,11.3z"/>
</g>
</svg>
